X: 21102
Q: "Strathspey."
M: C
L: 1/16
K: A
e2 |:\
|:\
cA3a2g2 a3AAe3 | cA3a3g =g3BB3e |\
cA3a3g a2A2a3e | fa3e=g3 d3cBe3 :|
|:\
dcBA A,3A c2A2Ae3 | dcBA A,3e d3BBe3 |\
dcBA A,3e dcBA A,3e | dcBA A,3e d3cB2e2 :|
|:\
c2A2a3g a3AA3e | c2A2a3f =g3BBe3 |\
cA3a3g a2A2a3e | fga2 ef=g2 d3cBe3 :|


